**kern	**kern	**dynam
*part1	*part1	*part1
*staff2	*staff1	*
*I"Piano	*	*
*clefF4	*clefG2	*
*k[b-e-]	*k[b-e-]	*
=1	=1	=1
4A-X; 4c 4e-	12r	.
.	12ee-L	.
.	12b-;J	.
4G 4B-	12r	.
.	12enL	.
.	12c#XJ	.
=	=	=
4F 4B-	12r	.
.	12fL	.
.	12cJ	.
8.FL 8.B-	8.dL 8.dd	.
16B-Jk 16d	16b-Jk 16dd	.
=	=	=
(4d 4f	(4dd 4ff	fp >
4B-) 4d	4b-) 4dd	]
=	=	=
4F 4c	12rg	.
.	12aL 12cc	.
.	12e-J	.
*	*^	*
8.DL 8.B-	12rg	12ryy	.
.	12b-L	6f	.
.	12gJ 12b-	.	.
16FJk 16c	.	.	.
*	*v	*v	*
=	=	=
4B- 4d	12r	.
.	12b-L 12dd	.
.	12e-J	.
4D 4F	12r	.
.	12fL	.
.	12dJ	.
=	=	=
4D 4F	12r	f
.	12aL	<
.	12e-J	.
8.FL 8.A	8.aL 8.dd	.
16AJk 16d	16aJk 16dd 16ff	ff
=	=	=
4d 4f	4a 4ff 4aa	[ >
4G 4B- 4en	12r	]
.	12eenL 12gg	mf
.	12b-J	.
=	=	=
*-	*-	*-
!!!system-decoration: {(s1,s2)}
